X: 1467
T: Dandy Denny Cronin
M:C|
L:1/8
N:"collected by Beamish"
B:O'Neill's 1467
Z:"Transcribed by Bob Safranek, rjs@gsp.org"
Z:All Ornaments (~) are mordents.
K:A
e2 AA e2 ef | gefd e2 (ef) | e2 AA e2 ef | gefd (~BA) A2 |
e2 AA e2 ef | gfgd e2 (dB) | d2 ef g2 a2 | gefd (~BA) A2 ||
a2 ef g2 a2 | gefd e2 (dB) | a2 ef g2 a2 | gefd (~BA) A2 |
a2 ef g2 a2 | gefd e2 (dB) | d2 ef g2 a2 | gefd (~BA) A2 |]


